packages/core/src/svgs/tokens/branded/HGPT.svg

<svg width="24" height="24" viewBox="0 0 24 24" fill="none" xmlns="http://www.w3.org/2000/svg">
<path d="M12.0329 21.9397C14.6764 21.9397 17.2115 20.8896 19.0808 19.0203C20.95 17.1511 22.0001 14.616 22.0001 11.9725C22.0001 9.32905 20.95 6.79382 19.0808 4.9246C17.2115 3.05539 14.6764 2.00528 12.0329 2.00528C9.38943 2.00528 6.85421 3.05539 4.98499 4.9246C3.11579 6.79382 2.06567 9.32905 2.06567 11.9725C2.06567 14.616 3.11579 17.1511 4.98499 19.0203C6.85421 20.8896 9.38943 21.9397 12.0329 21.9397Z" fill="url(#paint0_linear_364_7790)"/>
<path style="mix-blend-mode:multiply" d="M18.2074 19.7996C17.179 20.6253 15.997 21.2387 14.7298 21.6042C13.4627 21.9698 12.1356 22.0802 10.8254 21.9291C9.51522 21.778 8.24814 21.3685 7.09744 20.7242C5.94674 20.0798 4.93535 19.2134 4.12188 18.1754C3.30842 17.1373 2.70906 15.9482 2.35852 14.6767C2.00798 13.4054 1.91325 12.077 2.07981 10.7687C2.24635 9.46048 2.67089 8.1983 3.3288 7.0553C3.9867 5.91229 4.86491 4.91121 5.91252 4.11008C7.29034 5.92177 8.04082 8.27286 7.5835 10.8878C7.50141 11.3569 7.57177 11.7848 7.75353 12.1777C8.03495 12.7992 8.60366 13.3385 9.34832 13.8427C9.72932 14.1066 10.1691 14.3588 10.6206 14.605C11.1483 14.8923 11.6993 15.1737 12.2739 15.461C12.8602 15.7542 13.4641 16.0531 14.0504 16.3756C14.6625 16.71 15.2593 17.072 15.8388 17.4603C16.3077 17.7768 16.7474 18.1228 17.1344 18.4981C17.5446 18.8858 17.9049 19.323 18.2074 19.7996Z" fill="url(#paint1_linear_364_7790)"/>
<path fill-rule="evenodd" clip-rule="evenodd" d="M17.7205 9.62692H6.35196C6.08963 9.63376 5.83125 9.69232 5.59161 9.7993C5.35198 9.90614 5.1358 10.0594 4.95551 10.2501C4.7752 10.4406 4.63432 10.665 4.54092 10.9103C4.44754 11.1556 4.40347 11.4167 4.41128 11.679C4.41128 13.4555 5.78325 14.9038 7.46008 14.9038H16.6006C18.2833 14.9038 19.6552 13.4555 19.6552 11.679C19.6694 11.1508 19.4739 10.6383 19.1114 10.2538C18.7487 9.8692 18.2487 9.64389 17.7205 9.62692ZM10.2744 12.5819C10.2744 12.7871 10.204 12.9747 10.0986 13.1447H7.51878C7.41325 12.9747 7.34289 12.7871 7.34289 12.5819C7.34289 11.9194 7.99955 11.3858 8.80866 11.3858C9.6177 11.3858 10.2744 11.9194 10.2744 12.5819ZM17.3101 12.5819C17.3101 12.7871 17.2398 12.9747 17.1342 13.1447H14.5544C14.449 12.9747 14.3785 12.7871 14.3785 12.5819C14.3785 11.9194 15.0352 11.3858 15.8444 11.3858C16.6534 11.3858 17.3101 11.9194 17.3101 12.5819Z" fill="url(#paint2_linear_364_7790)"/>
<defs>
<linearGradient id="paint0_linear_364_7790" x1="20.3643" y1="8.80643" x2="11.9801" y2="14.8337" gradientUnits="userSpaceOnUse">
<stop stop-color="#6767D9"/>
<stop offset="1" stop-color="#9578EF"/>
</linearGradient>
<linearGradient id="paint1_linear_364_7790" x1="2.06635" y1="15.6075" x2="10.1925" y2="9.30479" gradientUnits="userSpaceOnUse">
<stop stop-color="#AA80F9"/>
<stop offset="1" stop-color="#675ADD"/>
</linearGradient>
<linearGradient id="paint2_linear_364_7790" x1="4.41128" y1="12.2653" x2="19.6552" y2="12.2653" gradientUnits="userSpaceOnUse">
<stop stop-color="#444B8C"/>
<stop offset="1" stop-color="#26264F"/>
</linearGradient>
</defs>
</svg>

<svg xmlns="http://www.w3.org/2000/svg" width="24" height="24" fill="none" viewBox="0 0 24 24">
    <path fill="url(#HGPT__a)" d="M12.033 21.94a9.967 9.967 0 1 0 0-19.934 9.967 9.967 0 0 0 0 19.934"/>
    <path fill="url(#HGPT__b)" d="M18.207 19.8A9.966 9.966 0 1 1 5.913 4.11c1.377 1.812 2.128 4.163 1.67 6.778-.082.469-.011.897.17 1.29.282.621.85 1.16 1.595 1.665.381.264.821.516 1.273.762.527.287 1.078.569 1.653.856.586.293 1.19.592 1.776.915q.92.502 1.789 1.084c.469.317.908.663 1.295 1.038.41.388.77.825 1.073 1.302" style="mix-blend-mode:multiply"/>
    <path fill="url(#HGPT__c)" fill-rule="evenodd" d="M17.72 9.627H6.353a1.993 1.993 0 0 0-1.94 2.052c0 1.777 1.371 3.225 3.048 3.225h9.14c1.683 0 3.055-1.448 3.055-3.225a2 2 0 0 0-1.934-2.052m-7.446 2.955c0 .205-.07.393-.175.563h-2.58a1.06 1.06 0 0 1-.176-.563c0-.663.657-1.196 1.466-1.196s1.465.533 1.465 1.196m7.036 0c0 .205-.07.393-.176.563h-2.58a1.06 1.06 0 0 1-.175-.563c0-.663.656-1.196 1.465-1.196.81 0 1.466.533 1.466 1.196" clip-rule="evenodd"/>
    <defs>
        <linearGradient id="HGPT__a" x1="20.364" x2="11.98" y1="8.806" y2="14.834" gradientUnits="userSpaceOnUse">
            <stop stop-color="#6767D9"/>
            <stop offset="1" stop-color="#9578EF"/>
        </linearGradient>
        <linearGradient id="HGPT__b" x1="2.066" x2="10.193" y1="15.607" y2="9.305" gradientUnits="userSpaceOnUse">
            <stop stop-color="#AA80F9"/>
            <stop offset="1" stop-color="#675ADD"/>
        </linearGradient>
        <linearGradient id="HGPT__c" x1="4.411" x2="19.655" y1="12.265" y2="12.265" gradientUnits="userSpaceOnUse">
            <stop stop-color="#444B8C"/>
            <stop offset="1" stop-color="#26264F"/>
        </linearGradient>
    </defs>
</svg>
